installer/core/SKSE/plugins/resources/icons/potion_default.svg

<?xml version="1.0" encoding="UTF-8" standalone="no"?>
<!DOCTYPE svg PUBLIC "-//W3C//DTD SVG 1.1//EN" "http://www.w3.org/Graphics/SVG/1.1/DTD/svg11.dtd">
<svg width="100%" height="100%" viewBox="0 0 464 683" version="1.1" xmlns="http://www.w3.org/2000/svg" xmlns:xlink="http://www.w3.org/1999/xlink" xml:space="preserve" xmlns:serif="http://www.serif.com/" style="fill-rule:evenodd;clip-rule:evenodd;stroke-linejoin:round;stroke-miterlimit:2;">
    <g transform="matrix(1.33333,0,0,1.33333,0,0)">
        <g transform="matrix(0.649994,0,0,0.649994,-42.4771,-21.6448)">
            <path d="M422,84.85C429.1,84.85 435.533,88.067 441.3,94.5C447.6,101.733 450.75,109.817 450.75,118.75C450.75,127.55 447.6,135.15 441.3,141.55C436.3,147.217 431.433,150.817 426.7,152.35C425.767,157.25 423.35,161.267 419.45,164.4C419.45,166.1 418.733,167.35 417.3,168.15C414.833,170.483 411.483,171.65 407.25,171.65L404.85,171.65L404.85,323.4L423.2,328.4C459.3,341.4 492.233,362.633 522,392.1C574.067,444.3 600.1,507.433 600.1,581.5C600.1,655.367 574.067,718.233 522,770.1C500.967,791.167 477.983,808.133 453.05,821L212.15,821C187.217,808.133 164.333,791.167 143.5,770.1C91.4,718.233 65.35,655.367 65.35,581.5C65.35,507.433 91.4,444.3 143.5,392.1C173.9,361.533 208.783,339.9 248.15,327.2C250.683,326.233 253.6,325.35 256.9,324.55L256.9,171.65L255.45,171.65C249.983,171.65 245.283,169.233 241.35,164.4C238.817,161.267 237.167,157.25 236.4,152.35C229.333,151.583 223.283,147.983 218.25,141.55C212.65,135.15 209.85,127.55 209.85,118.75C209.85,109.817 212.65,101.733 218.25,94.5C223.883,88.067 230.633,84.85 238.5,84.85L265.35,84.85L265.35,67.95C265.35,44.85 276.567,33.3 299,33.3L361.8,33.3C384.067,33.3 395.2,44.85 395.2,67.95L395.2,84.85L422,84.85" style="fill:white;"/>
        </g>
    </g>
</svg>

<?xml version="1.0" encoding="UTF-8" standalone="no"?>
<svg
   height="512"
   width="512"
   version="1.1"
   id="svg393"
   sodipodi:docname="default_potion.svg"
   xmlns:inkscape="http://www.inkscape.org/namespaces/inkscape"
   xmlns:sodipodi="http://sodipodi.sourceforge.net/DTD/sodipodi-0.dtd"
   xmlns="http://www.w3.org/2000/svg"
   xmlns:svg="http://www.w3.org/2000/svg">
  <defs
     id="defs397" />
  <sodipodi:namedview
     id="namedview395"
     pagecolor="#505050"
     bordercolor="#ffffff"
     borderopacity="1"
     inkscape:showpageshadow="0"
     inkscape:pageopacity="0"
     inkscape:pagecheckerboard="1"
     inkscape:deskcolor="#505050"
     showgrid="false" />
  <g
     transform="matrix(0.64999365,0,0,0.64999365,39.730863,-21.644788)"
     id="g391">
    <path
       d="m 422,84.85 q 10.65,0 19.3,9.65 9.45,10.85 9.45,24.25 0,13.2 -9.45,22.8 -7.5,8.5 -14.6,10.8 -1.4,7.35 -7.25,12.05 0,2.55 -2.15,3.75 -3.7,3.5 -10.05,3.5 h -2.4 V 323.4 l 18.35,5 q 54.15,19.5 98.8,63.7 78.1,78.3 78.1,189.4 0,110.8 -78.1,188.6 -31.55,31.6 -68.95,50.9 H 212.15 Q 174.75,801.7 143.5,770.1 65.35,692.3 65.35,581.5 q 0,-111.1 78.15,-189.4 45.6,-45.85 104.65,-64.9 3.8,-1.45 8.75,-2.65 v -152.9 h -1.45 q -8.2,0 -14.1,-7.25 -3.8,-4.7 -4.95,-12.05 -10.6,-1.15 -18.15,-10.8 -8.4,-9.6 -8.4,-22.8 0,-13.4 8.4,-24.25 8.45,-9.65 20.25,-9.65 h 26.85 V 67.95 Q 265.35,33.3 299,33.3 h 62.8 q 33.4,0 33.4,34.65 v 16.9 H 422"
       fill="#ffffff"
       fill-rule="evenodd"
       stroke="none"
       id="path389" />
  </g>
</svg>
